images/icons/math.svg

<svg xmlns="http://www.w3.org/2000/svg" xmlns:xlink="http://www.w3.org/1999/xlink" width="48px" height="48px" viewBox="0 0 48 48" version="1.1">
<defs>
<linearGradient id="linear0" gradientUnits="userSpaceOnUse" x1="1" y1="0" x2="47" y2="0" gradientTransform="matrix(0,-1,1,0,0.00221467,48.000001)">
<stop offset="0" style="stop-color:rgb(87.843137%,29.803922%,54.509804%);stop-opacity:1;"/>
<stop offset="1" style="stop-color:rgb(89.019608%,36.862745%,59.215686%);stop-opacity:1;"/>
</linearGradient>
</defs>
<g id="surface1">
<path style=" stroke:none;fill-rule:nonzero;fill:rgb(0%,0%,0%);fill-opacity:0.0196078;" d="M 1 43 L 1 43.25 C 1 45.464844 2.785156 47.25 5 47.25 L 43 47.25 C 45.214844 47.25 47 45.464844 47 43.25 L 47 43 C 47 45.214844 45.214844 47 43 47 L 5 47 C 2.785156 47 1 45.214844 1 43 Z M 1 43.5 L 1 44 C 1 46.214844 2.785156 48 5 48 L 43 48 C 45.214844 48 47 46.214844 47 44 L 47 43.5 C 47 45.714844 45.214844 47.5 43 47.5 L 5 47.5 C 2.785156 47.5 1 45.714844 1 43.5 Z M 1 43.5 "/>
<path style=" stroke:none;fill-rule:nonzero;fill:rgb(0%,0%,0%);fill-opacity:0.0509804;" d="M 1 43.25 L 1 43.5 C 1 45.714844 2.785156 47.5 5 47.5 L 43 47.5 C 45.214844 47.5 47 45.714844 47 43.5 L 47 43.25 C 47 45.464844 45.214844 47.25 43 47.25 L 5 47.25 C 2.785156 47.25 1 45.464844 1 43.25 Z M 1 43.25 "/>
<path style=" stroke:none;fill-rule:nonzero;fill:rgb(0%,0%,0%);fill-opacity:0.101961;" d="M 1 43 L 1 43.25 C 1 45.464844 2.785156 47.25 5 47.25 L 43 47.25 C 45.214844 47.25 47 45.464844 47 43.25 L 47 43 C 47 45.214844 45.214844 47 43 47 L 5 47 C 2.785156 47 1 45.214844 1 43 Z M 1 43 "/>
<path style=" stroke:none;fill-rule:nonzero;fill:url(#linear0);" d="M 1 43 L 1 5 C 1 2.789062 2.789062 1 5 1 L 43 1 C 45.210938 1 47 2.789062 47 5 L 47 43 C 47 45.210938 45.210938 47 43 47 L 5 47 C 2.789062 47 1 45.210938 1 43 Z M 1 43 "/>
<path style=" stroke:none;fill-rule:nonzero;fill:rgb(0%,0%,0%);fill-opacity:0.101961;" d="M 13.886719 11 L 34.113281 11 C 34.605469 11 35 11.394531 35 11.882812 L 35 36.113281 C 35 36.601562 34.605469 37 34.113281 37 L 13.886719 37 C 13.398438 37 13 36.601562 13 36.113281 L 13 11.882812 C 13 11.394531 13.398438 11 13.886719 11 M 13.886719 11 "/>
<path style=" stroke:none;fill-rule:nonzero;fill:rgb(0%,0%,0%);fill-opacity:0.101961;" d="M 15.441406 31 L 18.554688 31 C 18.800781 31 19 31.199219 19 31.441406 L 19 34.558594 C 19 34.800781 18.800781 35 18.554688 35 L 15.441406 35 C 15.195312 35 15 34.800781 15 34.558594 L 15 31.441406 C 15 31.199219 15.195312 31 15.441406 31 M 15.441406 31 "/>
<path style=" stroke:none;fill-rule:nonzero;fill:rgb(0%,0%,0%);fill-opacity:0.101961;" d="M 15.441406 25.019531 L 18.554688 25.019531 C 18.800781 25.019531 19 25.21875 19 25.460938 L 19 28.578125 C 19 28.820312 18.800781 29.019531 18.554688 29.019531 L 15.441406 29.019531 C 15.195312 29.019531 15 28.820312 15 28.578125 L 15 25.460938 C 15 25.21875 15.195312 25.019531 15.441406 25.019531 M 15.441406 25.019531 "/>
<path style=" stroke:none;fill-rule:nonzero;fill:rgb(0%,0%,0%);fill-opacity:0.101961;" d="M 15.441406 19 L 18.554688 19 C 18.800781 19 19 19.199219 19 19.441406 L 19 22.558594 C 19 22.800781 18.800781 23 18.554688 23 L 15.441406 23 C 15.195312 23 15 22.800781 15 22.558594 L 15 19.441406 C 15 19.199219 15.195312 19 15.441406 19 M 15.441406 19 "/>
<path style=" stroke:none;fill-rule:nonzero;fill:rgb(0%,0%,0%);fill-opacity:0.101961;" d="M 15.441406 13 L 32.550781 13 C 32.796875 13 32.996094 13.199219 32.996094 13.441406 L 32.996094 16.558594 C 32.996094 16.800781 32.796875 17 32.550781 17 L 15.441406 17 C 15.195312 17 15 16.800781 15 16.558594 L 15 13.441406 C 15 13.199219 15.195312 13 15.441406 13 M 15.441406 13 "/>
<path style=" stroke:none;fill-rule:nonzero;fill:rgb(0%,0%,0%);fill-opacity:0.101961;" d="M 22.441406 31 L 25.558594 31 C 25.800781 31 26 31.199219 26 31.441406 L 26 34.558594 C 26 34.800781 25.800781 35 25.558594 35 L 22.441406 35 C 22.199219 35 22 34.800781 22 34.558594 L 22 31.441406 C 22 31.199219 22.199219 31 22.441406 31 M 22.441406 31 "/>
<path style=" stroke:none;fill-rule:nonzero;fill:rgb(0%,0%,0%);fill-opacity:0.101961;" d="M 22.441406 25.019531 L 25.558594 25.019531 C 25.800781 25.019531 26 25.21875 26 25.460938 L 26 28.578125 C 26 28.820312 25.800781 29.019531 25.558594 29.019531 L 22.441406 29.019531 C 22.199219 29.019531 22 28.820312 22 28.578125 L 22 25.460938 C 22 25.21875 22.199219 25.019531 22.441406 25.019531 M 22.441406 25.019531 "/>
<path style=" stroke:none;fill-rule:nonzero;fill:rgb(0%,0%,0%);fill-opacity:0.101961;" d="M 22.441406 19 L 25.558594 19 C 25.800781 19 26 19.199219 26 19.441406 L 26 22.558594 C 26 22.800781 25.800781 23 25.558594 23 L 22.441406 23 C 22.199219 23 22 22.800781 22 22.558594 L 22 19.441406 C 22 19.199219 22.199219 19 22.441406 19 M 22.441406 19 "/>
<path style=" stroke:none;fill-rule:nonzero;fill:rgb(0%,0%,0%);fill-opacity:0.101961;" d="M 29.441406 19 L 32.554688 19 C 32.800781 19 33 19.199219 33 19.441406 L 33 22.558594 C 33 22.800781 32.800781 23 32.554688 23 L 29.441406 23 C 29.195312 23 29 22.800781 29 22.558594 L 29 19.441406 C 29 19.199219 29.195312 19 29.441406 19 M 29.441406 19 "/>
<path style=" stroke:none;fill-rule:nonzero;fill:rgb(0%,0%,0%);fill-opacity:0.101961;" d="M 29.441406 25.019531 L 32.554688 25.019531 C 32.800781 25.019531 33 25.21875 33 25.460938 L 33 34.574219 C 33 34.820312 32.800781 35.019531 32.554688 35.019531 L 29.441406 35.019531 C 29.195312 35.019531 29 34.820312 29 34.574219 L 29 25.460938 C 29 25.21875 29.195312 25.019531 29.441406 25.019531 M 29.441406 25.019531 "/>
<path style=" stroke:none;fill-rule:nonzero;fill:rgb(91.764706%,91.764706%,91.764706%);fill-opacity:1;" d="M 13.886719 10 L 34.113281 10 C 34.605469 10 35 10.394531 35 10.882812 L 35 35.113281 C 35 35.601562 34.605469 36 34.113281 36 L 13.886719 36 C 13.398438 36 13 35.601562 13 35.113281 L 13 10.882812 C 13 10.394531 13.398438 10 13.886719 10 M 13.886719 10 "/>
<path style=" stroke:none;fill-rule:nonzero;fill:rgb(58.431373%,60.392157%,60.784314%);fill-opacity:1;" d="M 15.441406 30 L 18.554688 30 C 18.800781 30 19 30.199219 19 30.441406 L 19 33.558594 C 19 33.800781 18.800781 34 18.554688 34 L 15.441406 34 C 15.195312 34 15 33.800781 15 33.558594 L 15 30.441406 C 15 30.199219 15.195312 30 15.441406 30 M 15.441406 30 "/>
<path style=" stroke:none;fill-rule:nonzero;fill:rgb(58.431373%,60.392157%,60.784314%);fill-opacity:1;" d="M 15.441406 24.019531 L 18.554688 24.019531 C 18.800781 24.019531 19 24.21875 19 24.460938 L 19 27.578125 C 19 27.820312 18.800781 28.019531 18.554688 28.019531 L 15.441406 28.019531 C 15.195312 28.019531 15 27.820312 15 27.578125 L 15 24.460938 C 15 24.21875 15.195312 24.019531 15.441406 24.019531 M 15.441406 24.019531 "/>
<path style=" stroke:none;fill-rule:nonzero;fill:rgb(58.431373%,60.392157%,60.784314%);fill-opacity:1;" d="M 15.441406 18 L 18.554688 18 C 18.800781 18 19 18.199219 19 18.441406 L 19 21.558594 C 19 21.800781 18.800781 22 18.554688 22 L 15.441406 22 C 15.195312 22 15 21.800781 15 21.558594 L 15 18.441406 C 15 18.199219 15.195312 18 15.441406 18 M 15.441406 18 "/>
<path style=" stroke:none;fill-rule:nonzero;fill:rgb(46.27451%,63.921569%,81.176471%);fill-opacity:1;" d="M 15.441406 12 L 32.550781 12 C 32.796875 12 32.996094 12.199219 32.996094 12.441406 L 32.996094 15.558594 C 32.996094 15.800781 32.796875 16 32.550781 16 L 15.441406 16 C 15.195312 16 15 15.800781 15 15.558594 L 15 12.441406 C 15 12.199219 15.195312 12 15.441406 12 M 15.441406 12 "/>
<path style=" stroke:none;fill-rule:nonzero;fill:rgb(58.431373%,60.392157%,60.784314%);fill-opacity:1;" d="M 22.441406 30 L 25.558594 30 C 25.800781 30 26 30.199219 26 30.441406 L 26 33.558594 C 26 33.800781 25.800781 34 25.558594 34 L 22.441406 34 C 22.199219 34 22 33.800781 22 33.558594 L 22 30.441406 C 22 30.199219 22.199219 30 22.441406 30 M 22.441406 30 "/>
<path style=" stroke:none;fill-rule:nonzero;fill:rgb(58.431373%,60.392157%,60.784314%);fill-opacity:1;" d="M 22.441406 24.019531 L 25.558594 24.019531 C 25.800781 24.019531 26 24.21875 26 24.460938 L 26 27.578125 C 26 27.820312 25.800781 28.019531 25.558594 28.019531 L 22.441406 28.019531 C 22.199219 28.019531 22 27.820312 22 27.578125 L 22 24.460938 C 22 24.21875 22.199219 24.019531 22.441406 24.019531 M 22.441406 24.019531 "/>
<path style=" stroke:none;fill-rule:nonzero;fill:rgb(58.431373%,60.392157%,60.784314%);fill-opacity:1;" d="M 22.441406 18 L 25.558594 18 C 25.800781 18 26 18.199219 26 18.441406 L 26 21.558594 C 26 21.800781 25.800781 22 25.558594 22 L 22.441406 22 C 22.199219 22 22 21.800781 22 21.558594 L 22 18.441406 C 22 18.199219 22.199219 18 22.441406 18 M 22.441406 18 "/>
<path style=" stroke:none;fill-rule:nonzero;fill:rgb(58.431373%,60.392157%,60.784314%);fill-opacity:1;" d="M 29.441406 18 L 32.554688 18 C 32.800781 18 33 18.199219 33 18.441406 L 33 21.558594 C 33 21.800781 32.800781 22 32.554688 22 L 29.441406 22 C 29.195312 22 29 21.800781 29 21.558594 L 29 18.441406 C 29 18.199219 29.195312 18 29.441406 18 M 29.441406 18 "/>
<path style=" stroke:none;fill-rule:nonzero;fill:rgb(92.54902%,49.803922%,12.54902%);fill-opacity:1;" d="M 29.441406 24.019531 L 32.554688 24.019531 C 32.800781 24.019531 33 24.21875 33 24.460938 L 33 33.574219 C 33 33.820312 32.800781 34.019531 32.554688 34.019531 L 29.441406 34.019531 C 29.195312 34.019531 29 33.820312 29 33.574219 L 29 24.460938 C 29 24.21875 29.195312 24.019531 29.441406 24.019531 M 29.441406 24.019531 "/>
<path style=" stroke:none;fill-rule:nonzero;fill:rgb(0%,0%,0%);fill-opacity:0.101961;" d="M 1 38.996094 L 1 42.996094 C 1 45.214844 2.785156 46.996094 5 46.996094 L 43 46.996094 C 45.214844 46.996094 47 45.214844 47 42.996094 L 47 38.996094 C 47 41.214844 45.214844 42.996094 43 42.996094 L 5 42.996094 C 2.785156 42.996094 1 41.214844 1 38.996094 Z M 1 38.996094 "/>
</g>
</svg>

<?xml version="1.0" encoding="UTF-8"?>
<svg width="48px" height="48px" version="1.1" viewBox="0 0 48 48" xmlns="http://www.w3.org/2000/svg">
 <defs>
  <linearGradient id="a" x1="1" x2="47" gradientTransform="matrix(0 -1 1 0 .0022147 48)" gradientUnits="userSpaceOnUse">
   <stop stop-color="#df4c8b" offset="0"/>
   <stop stop-color="#e35d96" offset="1"/>
  </linearGradient>
 </defs>
 <g>
  <g>
   <path d="m1 43v0.25c0 2.2148 1.7852 4 4 4h38c2.2148 0 4-1.7852 4-4v-0.25c0 2.2148-1.7852 4-4 4h-38c-2.2148 0-4-1.7852-4-4zm0 0.5v0.5c0 2.2148 1.7852 4 4 4h38c2.2148 0 4-1.7852 4-4v-0.5c0 2.2148-1.7852 4-4 4h-38c-2.2148 0-4-1.7852-4-4z" fill-opacity=".019608"/>
   <path d="m1 43.25v0.25c0 2.2148 1.7852 4 4 4h38c2.2148 0 4-1.7852 4-4v-0.25c0 2.2148-1.7852 4-4 4h-38c-2.2148 0-4-1.7852-4-4z" fill-opacity=".05098"/>
   <path d="m1 43v0.25c0 2.2148 1.7852 4 4 4h38c2.2148 0 4-1.7852 4-4v-0.25c0 2.2148-1.7852 4-4 4h-38c-2.2148 0-4-1.7852-4-4z" fill-opacity=".10196"/>
  </g>
  <path d="m1 43v-38c0-2.2109 1.7891-4 4-4h38c2.2109 0 4 1.7891 4 4v38c0 2.2109-1.7891 4-4 4h-38c-2.2109 0-4-1.7891-4-4z" fill="url(#a)"/>
  <g fill-opacity=".10196">
   <path d="m13.887 11h20.227c0.49219 0 0.88672 0.39453 0.88672 0.88281v24.23c0 0.48828-0.39453 0.88672-0.88672 0.88672h-20.227c-0.48828 0-0.88672-0.39844-0.88672-0.88672v-24.23c0-0.48828 0.39844-0.88281 0.88672-0.88281"/>
   <path d="m15.441 31h3.1133c0.24609 0 0.44531 0.19922 0.44531 0.44141v3.1172c0 0.24219-0.19922 0.44141-0.44531 0.44141h-3.1133c-0.24609 0-0.44141-0.19922-0.44141-0.44141v-3.1172c0-0.24219 0.19531-0.44141 0.44141-0.44141"/>
   <path d="m15.441 25.02h3.1133c0.24609 0 0.44531 0.19922 0.44531 0.44141v3.1172c0 0.24219-0.19922 0.44141-0.44531 0.44141h-3.1133c-0.24609 0-0.44141-0.19922-0.44141-0.44141v-3.1172c0-0.24219 0.19531-0.44141 0.44141-0.44141"/>
   <path d="m15.441 19h3.1133c0.24609 0 0.44531 0.19922 0.44531 0.44141v3.1172c0 0.24219-0.19922 0.44141-0.44531 0.44141h-3.1133c-0.24609 0-0.44141-0.19922-0.44141-0.44141v-3.1172c0-0.24219 0.19531-0.44141 0.44141-0.44141"/>
   <path d="m15.441 13h17.109c0.24609 0 0.44531 0.19922 0.44531 0.44141v3.1172c0 0.24219-0.19922 0.44141-0.44531 0.44141h-17.109c-0.24609 0-0.44141-0.19922-0.44141-0.44141v-3.1172c0-0.24219 0.19531-0.44141 0.44141-0.44141"/>
   <path d="m22.441 31h3.1172c0.24219 0 0.44141 0.19922 0.44141 0.44141v3.1172c0 0.24219-0.19922 0.44141-0.44141 0.44141h-3.1172c-0.24219 0-0.44141-0.19922-0.44141-0.44141v-3.1172c0-0.24219 0.19922-0.44141 0.44141-0.44141"/>
   <path d="m22.441 25.02h3.1172c0.24219 0 0.44141 0.19922 0.44141 0.44141v3.1172c0 0.24219-0.19922 0.44141-0.44141 0.44141h-3.1172c-0.24219 0-0.44141-0.19922-0.44141-0.44141v-3.1172c0-0.24219 0.19922-0.44141 0.44141-0.44141"/>
   <path d="m22.441 19h3.1172c0.24219 0 0.44141 0.19922 0.44141 0.44141v3.1172c0 0.24219-0.19922 0.44141-0.44141 0.44141h-3.1172c-0.24219 0-0.44141-0.19922-0.44141-0.44141v-3.1172c0-0.24219 0.19922-0.44141 0.44141-0.44141"/>
   <path d="m29.441 19h3.1133c0.24609 0 0.44531 0.19922 0.44531 0.44141v3.1172c0 0.24219-0.19922 0.44141-0.44531 0.44141h-3.1133c-0.24609 0-0.44141-0.19922-0.44141-0.44141v-3.1172c0-0.24219 0.19531-0.44141 0.44141-0.44141"/>
   <path d="m29.441 25.02h3.1133c0.24609 0 0.44531 0.19922 0.44531 0.44141v9.1133c0 0.24609-0.19922 0.44531-0.44531 0.44531h-3.1133c-0.24609 0-0.44141-0.19922-0.44141-0.44531v-9.1133c0-0.24219 0.19531-0.44141 0.44141-0.44141"/>
  </g>
  <path d="m13.887 10h20.227c0.49219 0 0.88672 0.39453 0.88672 0.88281v24.23c0 0.48828-0.39453 0.88672-0.88672 0.88672h-20.227c-0.48828 0-0.88672-0.39844-0.88672-0.88672v-24.23c0-0.48828 0.39844-0.88281 0.88672-0.88281" fill="#eaeaea"/>
  <g fill="#959a9b">
   <path d="m15.441 30h3.1133c0.24609 0 0.44531 0.19922 0.44531 0.44141v3.1172c0 0.24219-0.19922 0.44141-0.44531 0.44141h-3.1133c-0.24609 0-0.44141-0.19922-0.44141-0.44141v-3.1172c0-0.24219 0.19531-0.44141 0.44141-0.44141"/>
   <path d="m15.441 24.02h3.1133c0.24609 0 0.44531 0.19922 0.44531 0.44141v3.1172c0 0.24219-0.19922 0.44141-0.44531 0.44141h-3.1133c-0.24609 0-0.44141-0.19922-0.44141-0.44141v-3.1172c0-0.24219 0.19531-0.44141 0.44141-0.44141"/>
   <path d="m15.441 18h3.1133c0.24609 0 0.44531 0.19922 0.44531 0.44141v3.1172c0 0.24219-0.19922 0.44141-0.44531 0.44141h-3.1133c-0.24609 0-0.44141-0.19922-0.44141-0.44141v-3.1172c0-0.24219 0.19531-0.44141 0.44141-0.44141"/>
  </g>
  <path d="m15.441 12h17.109c0.24609 0 0.44531 0.19922 0.44531 0.44141v3.1172c0 0.24219-0.19922 0.44141-0.44531 0.44141h-17.109c-0.24609 0-0.44141-0.19922-0.44141-0.44141v-3.1172c0-0.24219 0.19531-0.44141 0.44141-0.44141" fill="#76a3cf"/>
  <g fill="#959a9b">
   <path d="m22.441 30h3.1172c0.24219 0 0.44141 0.19922 0.44141 0.44141v3.1172c0 0.24219-0.19922 0.44141-0.44141 0.44141h-3.1172c-0.24219 0-0.44141-0.19922-0.44141-0.44141v-3.1172c0-0.24219 0.19922-0.44141 0.44141-0.44141"/>
   <path d="m22.441 24.02h3.1172c0.24219 0 0.44141 0.19922 0.44141 0.44141v3.1172c0 0.24219-0.19922 0.44141-0.44141 0.44141h-3.1172c-0.24219 0-0.44141-0.19922-0.44141-0.44141v-3.1172c0-0.24219 0.19922-0.44141 0.44141-0.44141"/>
   <path d="m22.441 18h3.1172c0.24219 0 0.44141 0.19922 0.44141 0.44141v3.1172c0 0.24219-0.19922 0.44141-0.44141 0.44141h-3.1172c-0.24219 0-0.44141-0.19922-0.44141-0.44141v-3.1172c0-0.24219 0.19922-0.44141 0.44141-0.44141"/>
   <path d="m29.441 18h3.1133c0.24609 0 0.44531 0.19922 0.44531 0.44141v3.1172c0 0.24219-0.19922 0.44141-0.44531 0.44141h-3.1133c-0.24609 0-0.44141-0.19922-0.44141-0.44141v-3.1172c0-0.24219 0.19531-0.44141 0.44141-0.44141"/>
  </g>
  <path d="m29.441 24.02h3.1133c0.24609 0 0.44531 0.19922 0.44531 0.44141v9.1133c0 0.24609-0.19922 0.44531-0.44531 0.44531h-3.1133c-0.24609 0-0.44141-0.19922-0.44141-0.44531v-9.1133c0-0.24219 0.19531-0.44141 0.44141-0.44141" fill="#ec7f20"/>
  <path d="m1 38.996v4c0 2.2188 1.7852 4 4 4h38c2.2148 0 4-1.7812 4-4v-4c0 2.2188-1.7852 4-4 4h-38c-2.2148 0-4-1.7812-4-4z" fill-opacity=".10196"/>
 </g>
</svg>
